X: 468
T: Chicken Reel
C:Traditional
B: jims roots
M:2/4
L:1/8
Q: 1/4=100
K:D
V:1 
x(=f |: "D"^f)dAF DFBF | AFBF A3(=f | ^f)dAF DFBF | "A"Ad2 c"D"d3 (=f |
"D"^f)dAF DFBF | AFBF A3(=f | ^f)dAF DFBF | "A"Ad2 c"D"d4||
|:"D"fa2 fd f2 d | Aded fded | fa2 fd f2 d | [1 "A"Ad2 c"D"d3 =f:| [2 "A"Ad2 c"D"d4||
|:"D"f2 af d2 fd | Aded fded | f2 af d2fd | [1 "A"Ad2 c"D"d3 =f:| [2 "A"Ad2 c"D"d4||
% abcbook-tune_id 6298c245e6bff70f22d7fa29


% abcbook-boost 0
% abcbook-tablature 
% abcbook-transpose 
% abcbook-lastupdated 1654178373693
% abcbook-soundfonts 
% abcbook-repeats 1


